app/img/cloudguard_icon_3.svg

<svg width="44" height="44" viewBox="0 0 44 44" fill="none" xmlns="http://www.w3.org/2000/svg">
<g clip-path="url(#clip0_367:331)">
<path fill-rule="evenodd" clip-rule="evenodd" d="M33.1557 3.15288L28.9025 7.40613C28.7557 7.55294 28.6823 7.7728 28.6823 7.91961V12.3197C29.6358 12.9796 30.5156 13.7864 31.249 14.7396L35.0625 10.9264C35.2093 10.7796 35.2823 10.6328 35.2823 10.4129V9.3863C34.6958 9.16608 34.1823 8.72636 33.9625 8.06606C33.5224 6.96605 34.1093 5.71958 35.2823 5.2795C36.4558 4.83943 37.6292 5.49936 38.0693 6.59938C38.5093 7.69939 37.9224 8.94622 36.749 9.3863V10.4129C36.749 10.9994 36.5292 11.5129 36.0891 11.953L32.1291 15.913C32.5692 16.7197 32.9359 17.5265 33.2291 18.3329H36.8958C37.1157 18.3329 37.2625 18.2598 37.4093 18.113L39.1693 16.3531C39.0225 16.0598 38.9491 15.6931 38.9491 15.3995C38.9491 14.153 39.9026 13.1995 41.1491 13.1995C42.3959 13.1995 43.3491 14.153 43.3491 15.3995C43.3491 16.6463 42.3959 17.5995 41.1491 17.5995C40.7824 17.5995 40.4891 17.5265 40.1959 17.3797L38.4359 19.1396C38.0693 19.5797 37.4824 19.7996 36.8958 19.7996H33.5958C33.7426 20.4598 33.8157 21.0464 33.8157 21.7063L38.2891 26.1798C38.4359 26.3266 38.5824 26.3996 38.8026 26.3996H39.8292C40.0491 25.8131 40.4891 25.2996 41.1491 25.0798C42.2491 24.6397 43.4959 25.2266 43.936 26.3996C44.3761 27.4997 43.7892 28.7465 42.6158 29.1866C41.5158 29.6266 40.2693 29.0397 39.8292 27.8663H38.8026C38.2157 27.8663 37.7026 27.6465 37.2625 27.2064L33.6692 23.6131C33.449 25.4464 32.789 27.133 31.7624 28.5997H34.6958C35.2823 28.5997 35.7958 28.8199 36.2359 29.26L39.7558 32.7799C40.1959 33.1465 40.4157 33.7331 40.4157 34.32V35.3466C41.0026 35.5664 41.5158 36.0065 41.736 36.6664C42.176 37.7665 41.5892 39.0133 40.4157 39.4534C39.3157 39.8934 38.0693 39.3065 37.6292 38.1331C37.1891 37.0331 37.776 35.7866 38.9491 35.3466V34.32C38.9491 34.0997 38.876 33.9533 38.7292 33.8065L35.2093 30.2866C35.0625 30.1398 34.9157 30.0664 34.6958 30.0664H30.589C30.0025 30.6532 29.3425 31.2398 28.6823 31.6799V35.3466C28.6823 35.5664 28.7557 35.7132 28.9025 35.8601L32.8624 39.82C33.1557 39.6732 33.5224 39.5998 33.8157 39.5998C35.0625 39.5998 36.0157 40.5534 36.0157 41.7998C36.0157 43.0467 35.0625 43.9999 33.8157 43.9999C32.5692 43.9999 31.6156 43.0467 31.6156 41.7998C31.6156 41.5066 31.689 41.1399 31.8358 40.8466L27.8759 36.8867C27.4358 36.52 27.2156 35.9331 27.2156 35.3466V32.56C25.8223 33.2199 24.3556 33.66 22.8155 33.7331V39.7466C23.4024 39.9665 23.9155 40.4066 24.1357 41.0665C24.5758 42.1665 23.9889 43.4133 22.8155 43.8534C21.7155 44.2935 20.469 43.7066 20.0289 42.5332C19.5889 41.4332 20.1758 40.1867 21.3488 39.7466V33.7331C19.8091 33.66 18.3424 33.2199 16.9488 32.56V35.3466C16.9488 35.9331 16.7289 36.4466 16.2888 36.8867L12.3288 40.8466C12.4757 41.1399 12.5487 41.5066 12.5487 41.7998C12.5487 43.0467 11.5955 43.9999 10.3487 43.9999C9.10221 43.9999 8.14865 43.0467 8.14865 41.7998C8.14865 40.5534 9.10221 39.5998 10.3487 39.5998C10.6423 39.5998 11.009 39.6732 11.3022 39.82L15.2622 35.8601C15.409 35.7132 15.4821 35.5664 15.4821 35.3466V31.6799C14.7487 31.2398 14.1622 30.6532 13.5757 30.0664H9.46888C9.24866 30.0664 9.10221 30.1398 8.9554 30.2866L5.4355 33.8065C5.28868 33.9533 5.21528 34.0997 5.21528 34.32V35.3466C5.80217 35.5664 6.31529 36.0065 6.53551 36.6664C6.97559 37.7665 6.3887 39.0133 5.21528 39.4534C4.11526 39.8934 2.8688 39.3065 2.42872 38.1331C1.98864 37.0331 2.57553 35.7866 3.74859 35.3466V34.32C3.74859 33.7331 3.96881 33.2199 4.40889 32.7799L7.92879 29.26C8.29546 28.8199 8.88199 28.5997 9.46888 28.5997H12.4023C11.3756 27.0599 10.7154 25.373 10.4955 23.6131L6.90218 27.2064C6.53551 27.6465 5.94862 27.8663 5.36209 27.8663H4.33548C4.11526 28.4532 3.67554 28.9663 3.01525 29.1866C1.91523 29.6266 0.668766 29.0397 0.228689 27.8663C-0.211388 26.6933 0.448549 25.5198 1.54856 25.0798C2.64858 24.6397 3.8954 25.2266 4.33548 26.3996H5.36209C5.5089 26.3996 5.72876 26.3266 5.87557 26.1798L10.3487 21.7063C10.3726 21.4917 10.3887 21.277 10.4046 21.0649C10.4376 20.6248 10.4698 20.1956 10.5689 19.7996H7.26885C6.68196 19.7996 6.16884 19.5797 5.72876 19.1396L3.96881 17.3797C3.67554 17.5265 3.30887 17.5995 3.01525 17.5995C1.76878 17.5995 0.81522 16.6463 0.81522 15.3995C0.81522 14.153 1.76878 13.1995 3.01525 13.1995C4.26207 13.1995 5.21528 14.153 5.21528 15.3995C5.21528 15.6931 5.14223 16.0598 4.99542 16.3531L6.75537 18.113C6.90218 18.2598 7.04864 18.3329 7.26885 18.3329H10.9356C11.2288 17.4531 11.5955 16.6463 12.0356 15.913L8.0756 11.953C7.63553 11.5863 7.41531 10.9994 7.41531 10.4129V9.3863C6.82878 9.16608 6.31529 8.72636 6.09543 8.06606C5.65536 6.96605 6.31529 5.71958 7.41531 5.2795C8.51532 4.83943 9.76215 5.42632 10.2022 6.59938C10.6423 7.69939 10.0554 8.94622 8.88199 9.3863V10.4129C8.88199 10.6328 8.9554 10.7796 9.10221 10.9264L12.9154 14.7396C13.6487 13.7864 14.5289 12.9796 15.4821 12.3197V7.91961C15.4821 7.69939 15.409 7.55294 15.2622 7.40613L11.009 3.15288C10.8622 3.00607 10.7154 2.93266 10.4955 2.93266H4.33548C4.11526 3.51955 3.67554 4.03268 3.01525 4.2529C1.84219 4.69297 0.668766 4.10608 0.228689 2.93266C-0.211388 1.7596 0.448549 0.58618 1.54856 0.146103C2.64858 -0.293975 3.96881 0.292914 4.33548 1.46598H10.4955C11.082 1.46598 11.5955 1.68619 12.0356 2.12627L16.2888 6.37952C16.7289 6.74619 16.9488 7.33272 16.9488 7.91961V11.4395C18.3424 10.7796 19.8091 10.3395 21.3488 10.2661V4.2529C20.7623 4.03268 20.2488 3.59296 20.0289 2.93266C19.5889 1.7596 20.1758 0.58618 21.3488 0.146103C22.5222 -0.293975 23.6957 0.365963 24.1357 1.46598C24.5758 2.56599 23.9889 3.81282 22.8155 4.2529V10.2661C24.3556 10.3395 25.8223 10.7796 27.2156 11.4395V7.91961C27.2156 7.33272 27.4358 6.8196 27.8759 6.37952L32.1291 2.12627C32.4958 1.68619 33.0823 1.46598 33.6692 1.46598H39.8292C40.0491 0.879446 40.4891 0.365962 41.1491 0.146103C42.3225 -0.293975 43.4959 0.365963 43.936 1.46598C44.3761 2.56599 43.7158 3.81282 42.6158 4.2529C41.5158 4.69297 40.2693 4.10608 39.8292 2.93266H33.6692C33.5224 2.93266 33.3025 3.00607 33.1557 3.15288ZM42.6158 2.19932C42.6158 1.7596 42.3225 1.46598 41.8824 1.46598C41.4427 1.46598 41.1491 1.7596 41.1491 2.19932C41.1491 2.6394 41.4427 2.93266 41.8824 2.93266C42.3225 2.93266 42.6158 2.6394 42.6158 2.19932ZM1.54856 2.19932C1.54856 2.6394 1.84219 2.93266 2.28191 2.93266C2.72198 2.93266 3.01525 2.6394 3.01525 2.19932C3.01525 1.7596 2.72198 1.46598 2.28191 1.46598C1.84219 1.46598 1.54856 1.7596 1.54856 2.19932ZM8.88199 7.33272C8.88199 6.893 8.58873 6.59938 8.14865 6.59938C7.70893 6.59938 7.41531 6.893 7.41531 7.33272C7.41531 7.7728 7.70893 8.06606 8.14865 8.06606C8.58873 8.06606 8.88199 7.7728 8.88199 7.33272ZM3.01525 14.6662C2.57553 14.6662 2.28191 14.9598 2.28191 15.3995C2.28191 15.8396 2.57553 16.1328 3.01525 16.1328C3.45533 16.1328 3.74859 15.8396 3.74859 15.3995C3.74859 14.9598 3.45533 14.6662 3.01525 14.6662ZM1.54856 27.133C1.54856 27.5731 1.84219 27.8663 2.28191 27.8663C2.72198 27.8663 3.01525 27.5731 3.01525 27.133C3.01525 26.6933 2.72198 26.3996 2.28191 26.3996C1.84219 26.3996 1.54856 26.6933 1.54856 27.133ZM3.74859 37.3998C3.74859 37.8399 4.04222 38.1331 4.48194 38.1331C4.92201 38.1331 5.21528 37.8399 5.21528 37.3998C5.21528 36.9601 4.92201 36.6664 4.48194 36.6664C4.04222 36.6664 3.74859 36.9601 3.74859 37.3998ZM9.61534 41.7998C9.61534 42.2399 9.90896 42.5332 10.3487 42.5332C10.7888 42.5332 11.082 42.2399 11.082 41.7998C11.082 41.3601 10.7888 41.0665 10.3487 41.0665C9.90896 41.0665 9.61534 41.3601 9.61534 41.7998ZM33.8157 42.5332C34.2557 42.5332 34.549 42.2399 34.549 41.7998C34.549 41.3601 34.2557 41.0665 33.8157 41.0665C33.3759 41.0665 33.0823 41.3601 33.0823 41.7998C33.0823 42.2399 33.3759 42.5332 33.8157 42.5332ZM38.9491 37.3998C38.9491 37.8399 39.2427 38.1331 39.6824 38.1331C40.1225 38.1331 40.4157 37.8399 40.4157 37.3998C40.4157 36.9601 40.1225 36.6664 39.6824 36.6664C39.2427 36.6664 38.9491 36.9601 38.9491 37.3998ZM42.6158 27.133C42.6158 26.6933 42.3225 26.3996 41.8824 26.3996C41.4427 26.3996 41.1491 26.6933 41.1491 27.133C41.1491 27.5731 41.4427 27.8663 41.8824 27.8663C42.3225 27.8663 42.6158 27.5731 42.6158 27.133ZM41.8824 15.3995C41.8824 14.9598 41.5892 14.6662 41.1491 14.6662C40.7094 14.6662 40.4157 14.9598 40.4157 15.3995C40.4157 15.8396 40.7094 16.1328 41.1491 16.1328C41.5892 16.1328 41.8824 15.8396 41.8824 15.3995ZM36.749 7.33272C36.749 6.893 36.4558 6.59938 36.0157 6.59938C35.576 6.59938 35.2823 6.893 35.2823 7.33272C35.2823 7.7728 35.576 8.06606 36.0157 8.06606C36.4558 8.06606 36.749 7.7728 36.749 7.33272ZM22.8155 2.19932C22.8155 1.7596 22.5222 1.46598 22.0822 1.46598C21.6424 1.46598 21.3488 1.7596 21.3488 2.19932C21.3488 2.6394 21.6424 2.93266 22.0822 2.93266C22.5222 2.93266 22.8155 2.6394 22.8155 2.19932ZM21.3488 41.7998C21.3488 42.2399 21.6424 42.5332 22.0822 42.5332C22.5222 42.5332 22.8155 42.2399 22.8155 41.7998C22.8155 41.3601 22.5222 41.0665 22.0822 41.0665C21.6424 41.0665 21.3488 41.3601 21.3488 41.7998ZM22.0822 32.2664C27.729 32.2664 32.349 27.6465 32.349 21.9996C32.349 16.3531 27.729 11.7328 22.0822 11.7328C16.4356 11.7328 11.8154 16.3531 11.8154 21.9996C11.8154 27.6465 16.4356 32.2664 22.0822 32.2664ZM27.63 18.4975C27.637 18.2656 27.51 18.0499 27.3032 17.9437L22.132 15.4L17.0474 17.9356L17.045 17.9369C16.8389 18.0434 16.7124 18.2591 16.7203 18.491V23.0519C16.7203 23.6999 16.9254 24.4129 17.2591 25.0514C17.5927 25.6898 18.0606 26.2649 18.5969 26.6306L21.8354 28.8449C21.9363 28.9144 22.0559 28.952 22.179 28.952C22.3024 28.952 22.4229 28.9144 22.5245 28.8449L25.7544 26.6305C26.2907 26.2647 26.7583 25.6898 27.0917 25.0514C27.4251 24.4129 27.63 23.6999 27.63 23.0519V18.4975ZM21.5629 17.0971L17.9521 18.8727V23.0519C17.9521 23.4876 18.1026 24.0036 18.3502 24.4772C18.5979 24.951 18.9354 25.3679 19.2951 25.6131L21.566 27.1691L21.5629 17.0971ZM22.7819 27.1711L25.0596 25.6129C25.4189 25.3678 25.7551 24.9511 26.0019 24.4774C26.2486 24.0038 26.3983 23.4877 26.3983 23.0519V18.8791L22.7602 17.0868L22.7819 27.1711Z" fill="white"/>
</g>
<defs>
<clipPath id="clip0_367:331">
<rect width="44" height="44" fill="white"/>
</clipPath>
</defs>
</svg>

<svg width="44" height="44" fill="none" xmlns="http://www.w3.org/2000/svg"><g clip-path="url(#clip0_367:331)"><path fill-rule="evenodd" clip-rule="evenodd" d="M33.156 3.153l-4.253 4.253a.792.792 0 00-.22.514v4.4a11.45 11.45 0 012.566 2.42l3.814-3.814a.666.666 0 00.22-.513V9.386c-.587-.22-1.1-.66-1.32-1.32-.44-1.1.146-2.346 1.32-2.787 1.173-.44 2.346.22 2.786 1.32.44 1.1-.147 2.347-1.32 2.787v1.027c0 .586-.22 1.1-.66 1.54l-3.96 3.96c.44.807.807 1.613 1.1 2.42h3.667c.22 0 .367-.073.513-.22l1.76-1.76a2.257 2.257 0 01-.22-.954c0-1.246.954-2.2 2.2-2.2 1.247 0 2.2.954 2.2 2.2 0 1.247-.953 2.2-2.2 2.2-.367 0-.66-.073-.953-.22l-1.76 1.76c-.367.44-.954.66-1.54.66h-3.3c.147.66.22 1.247.22 1.907l4.473 4.474c.147.147.293.22.514.22h1.026c.22-.587.66-1.1 1.32-1.32 1.1-.44 2.347.147 2.787 1.32.44 1.1-.147 2.347-1.32 2.787-1.1.44-2.347-.147-2.787-1.32h-1.026c-.587 0-1.1-.22-1.54-.66l-3.594-3.594a10.91 10.91 0 01-1.907 4.987h2.934c.586 0 1.1.22 1.54.66l3.52 3.52c.44.367.66.953.66 1.54v1.027c.587.22 1.1.66 1.32 1.32.44 1.1-.147 2.346-1.32 2.786-1.1.44-2.347-.147-2.787-1.32-.44-1.1.147-2.346 1.32-2.786V34.32a.665.665 0 00-.22-.514l-3.52-3.52a.666.666 0 00-.513-.22h-4.107c-.586.587-1.246 1.174-1.907 1.614v3.667c0 .22.074.366.22.513l3.96 3.96c.294-.147.66-.22.954-.22 1.246 0 2.2.953 2.2 2.2 0 1.247-.953 2.2-2.2 2.2-1.247 0-2.2-.953-2.2-2.2 0-.293.073-.66.22-.953l-3.96-3.96c-.44-.367-.66-.954-.66-1.54V32.56c-1.394.66-2.86 1.1-4.4 1.173v6.014c.586.22 1.1.66 1.32 1.32.44 1.1-.147 2.346-1.32 2.786-1.1.44-2.347-.146-2.787-1.32-.44-1.1.147-2.346 1.32-2.786v-6.014c-1.54-.073-3.007-.513-4.4-1.173v2.787c0 .586-.22 1.1-.66 1.54l-3.96 3.96c.147.293.22.66.22.953 0 1.247-.954 2.2-2.2 2.2-1.247 0-2.2-.953-2.2-2.2 0-1.247.953-2.2 2.2-2.2.293 0 .66.073.953.22l3.96-3.96a.666.666 0 00.22-.513V31.68c-.733-.44-1.32-1.027-1.906-1.614H9.469a.666.666 0 00-.514.22l-3.52 3.52a.666.666 0 00-.22.514v1.027c.587.22 1.1.66 1.32 1.32.44 1.1-.146 2.346-1.32 2.786-1.1.44-2.346-.147-2.786-1.32-.44-1.1.147-2.346 1.32-2.786V34.32c0-.587.22-1.1.66-1.54l3.52-3.52c.366-.44.953-.66 1.54-.66h2.933c-1.026-1.54-1.687-3.227-1.906-4.987l-3.594 3.593c-.366.44-.953.66-1.54.66H4.335c-.22.587-.66 1.1-1.32 1.32-1.1.44-2.346-.146-2.786-1.32-.44-1.173.22-2.346 1.32-2.786 1.1-.44 2.346.147 2.786 1.32h1.027a.792.792 0 00.514-.22l4.473-4.474c.024-.214.04-.429.056-.641.033-.44.065-.87.164-1.265h-3.3c-.587 0-1.1-.22-1.54-.66l-1.76-1.76c-.293.146-.66.22-.954.22-1.246 0-2.2-.954-2.2-2.2 0-1.247.954-2.2 2.2-2.2 1.247 0 2.2.953 2.2 2.2 0 .293-.073.66-.22.953l1.76 1.76c.147.147.294.22.514.22h3.667c.293-.88.66-1.687 1.1-2.42l-3.96-3.96c-.44-.367-.66-.954-.66-1.54V9.386c-.587-.22-1.1-.66-1.32-1.32-.44-1.1.22-2.346 1.32-2.787 1.1-.44 2.346.147 2.786 1.32.44 1.1-.147 2.347-1.32 2.787v1.027c0 .22.073.367.22.513l3.813 3.814a11.455 11.455 0 012.567-2.42v-4.4a.665.665 0 00-.22-.514L11.01 3.153a.666.666 0 00-.514-.22h-6.16c-.22.587-.66 1.1-1.32 1.32C1.842 4.693.67 4.106.23 2.933-.211 1.76.449.586 1.549.146c1.1-.44 2.42.147 2.786 1.32h6.16c.587 0 1.1.22 1.54.66L16.29 6.38c.44.366.66.953.66 1.54v3.52c1.393-.66 2.86-1.1 4.4-1.174V4.253c-.587-.22-1.1-.66-1.32-1.32-.44-1.173.147-2.347 1.32-2.787 1.173-.44 2.347.22 2.787 1.32.44 1.1-.147 2.347-1.32 2.787v6.013c1.54.073 3.006.514 4.4 1.174V7.92c0-.587.22-1.1.66-1.54l4.253-4.254c.367-.44.953-.66 1.54-.66h6.16c.22-.587.66-1.1 1.32-1.32 1.173-.44 2.347.22 2.787 1.32.44 1.1-.22 2.347-1.32 2.787-1.1.44-2.347-.147-2.787-1.32h-6.16a.792.792 0 00-.513.22zm9.46-.954c0-.44-.294-.733-.734-.733s-.733.294-.733.733c0 .44.294.734.733.734.44 0 .734-.294.734-.734zm-41.067 0c0 .44.293.734.733.734s.733-.294.733-.734-.293-.733-.733-.733-.733.294-.733.733zm7.333 5.134c0-.44-.293-.734-.733-.734s-.734.294-.734.734.294.733.734.733.733-.293.733-.733zm-5.867 7.333c-.44 0-.733.294-.733.733 0 .44.294.734.733.734.44 0 .734-.293.734-.733s-.294-.734-.734-.734zM1.55 27.133c0 .44.293.733.733.733s.733-.293.733-.733-.293-.733-.733-.733-.733.293-.733.733zm2.2 10.267c0 .44.293.733.733.733s.733-.293.733-.733-.293-.734-.733-.734-.733.294-.733.734zm5.866 4.4c0 .44.294.733.734.733s.733-.293.733-.733-.293-.733-.733-.733-.734.293-.734.733zm24.2.733c.44 0 .734-.293.734-.733s-.293-.733-.733-.733-.734.293-.734.733.294.733.734.733zM38.95 37.4c0 .44.294.733.733.733.44 0 .734-.293.734-.733s-.293-.734-.734-.734c-.44 0-.733.294-.733.734zm3.667-10.267c0-.44-.294-.733-.734-.733s-.733.293-.733.733.294.733.733.733c.44 0 .734-.293.734-.733zM41.882 15.4c0-.44-.293-.734-.733-.734s-.733.294-.733.733c0 .44.293.734.733.734s.733-.293.733-.733zM36.75 7.332c0-.44-.293-.734-.733-.734s-.734.294-.734.734.294.733.734.733.733-.293.733-.733zM22.815 2.199c0-.44-.293-.733-.733-.733s-.733.294-.733.733c0 .44.293.734.733.734s.733-.294.733-.734zM21.35 41.8c0 .44.293.734.733.734s.733-.293.733-.733-.293-.733-.733-.733-.733.293-.733.733zm.733-9.533c5.647 0 10.267-4.62 10.267-10.266 0-5.647-4.62-10.267-10.267-10.267-5.646 0-10.267 4.62-10.267 10.267 0 5.646 4.62 10.266 10.267 10.266zm5.548-13.768a.602.602 0 00-.327-.554L22.132 15.4l-5.085 2.536h-.002a.6.6 0 00-.325.555v4.56c0 .649.205 1.362.54 2 .333.639.8 1.214 1.337 1.58l3.238 2.214a.605.605 0 00.69 0l3.23-2.214c.536-.366 1.003-.941 1.337-1.58.333-.638.538-1.351.538-2v-4.553zm-6.067-1.4l-3.61 1.775v4.179c0 .436.15.952.397 1.425.248.474.585.89.945 1.136l2.271 1.556-.003-10.072zm1.219 10.073l2.278-1.558c.359-.245.695-.662.942-1.136.247-.473.396-.99.396-1.425v-4.173l-3.638-1.792.022 10.084z" fill="#fff"/></g><defs><clipPath id="clip0_367:331"><path fill="#fff" d="M0 0h44v44H0z"/></clipPath></defs></svg>
